X: 1
T:Fieldtown Processional
R:Polka
O:England
M:4/4
K:D
FFFD EEE2 | GFEG FDD2 |\
F/G/A Bc dABG | FDEC D2D2 :|\
d3c cBB2 | e3d cAA2 | dddA BBBd | cAB^G ABA=G |\
FFFD EEE2 | GFEG FDD2 |\
F/G/A Bc dABG | FDEC D2D2 |]
